assets/images/svg/lemonade_24.svg

<svg width="24" height="24" viewBox="0 0 24 24" fill="none" xmlns="http://www.w3.org/2000/svg">
<g clip-path="url(#clip0_867_249)">
<path d="M6.59058 11.8008L7.43182 23.5227H15.9943L16.8355 11.8008H6.59058Z" fill="#F9AF49"/>
<path d="M17.1914 3.34766C15.4399 3.34766 14.0144 4.73999 13.9592 6.47813H17.2175L16.9784 9.80958C17.0489 9.81417 17.1198 9.81733 17.1914 9.81733C18.978 9.81733 20.4262 8.36906 20.4262 6.58249C20.4262 4.79593 18.978 3.34766 17.1914 3.34766Z" fill="#F9AF49"/>
<path d="M13.9566 6.58288C13.9566 6.54789 13.9581 6.51327 13.9592 6.47852H6.20862L6.59056 11.8003H16.8356L16.9784 9.80997C15.2912 9.70016 13.9566 8.29773 13.9566 6.58288Z" fill="#D7EEFF"/>
<path d="M13.9592 6.47852C13.9581 6.51322 13.9565 6.54784 13.9565 6.58288C13.9565 8.29778 15.2912 9.70016 16.9783 9.80997L17.2174 6.47852H13.9592Z" fill="#F9AF49"/>
<path d="M8.80582 19.8274C8.54244 19.8462 8.34418 20.0749 8.36292 20.3383L8.41871 21.1206C8.43664 21.3724 8.64652 21.5647 8.89508 21.5647C8.90651 21.5647 8.91798 21.5643 8.92955 21.5635C9.19293 21.5447 9.39119 21.316 9.37245 21.0526L9.31666 20.2703C9.29792 20.0069 9.06901 19.8086 8.80582 19.8274Z" fill="black"/>
<path d="M20.9044 6.58255C20.9044 4.53524 19.2388 2.86963 17.1914 2.86963C16.2206 2.86963 15.3025 3.24201 14.6061 3.91817C14.0238 4.48365 13.65 5.21049 13.5259 6.00015H8.30546L7.91166 0.444292C7.89741 0.243017 7.75829 0.0723877 7.56404 0.0178379C7.36984 -0.0367119 7.16221 0.0365311 7.04522 0.200898L3.18428 5.62705C3.0312 5.84219 3.08154 6.14071 3.29668 6.29374C3.51177 6.44692 3.81029 6.39658 3.96337 6.18139L7.05206 1.84055L7.34689 6.00005H6.20866C6.07594 6.00005 5.94916 6.05522 5.8587 6.15242C5.76825 6.24962 5.72226 6.37999 5.73177 6.51237L6.11376 11.8342L6.955 23.5561C6.97293 23.8062 7.18109 24 7.43185 24H15.9943C16.2451 24 16.4532 23.8062 16.4711 23.5561L17.3124 11.8342L17.4235 10.2874C19.363 10.1672 20.9044 8.55185 20.9044 6.58255ZM16.5386 9.2598C15.4466 8.99389 14.614 8.07687 14.4606 6.95628H16.7039L16.5386 9.2598ZM7.41469 6.95628L7.62361 9.9033C7.64149 10.1552 7.85137 10.3476 8.10002 10.3476C8.11136 10.3476 8.12283 10.3472 8.1343 10.3464C8.39768 10.3277 8.59609 10.0991 8.5774 9.8357L8.3733 6.95628H13.4973C13.6612 8.5779 14.879 9.90981 16.4694 10.2242L16.3906 11.3219H7.03561L6.72227 6.95628H7.41469ZM15.5493 23.0438H7.87685L7.10422 12.2781H7.78841L8.23652 18.5643C8.25445 18.8162 8.46433 19.0084 8.71289 19.0084C8.72431 19.0084 8.73579 19.008 8.74735 19.0072C9.01073 18.9884 9.209 18.7597 9.19026 18.4963L8.74697 12.2781H16.3219L15.5493 23.0438ZM17.4927 9.32295L17.6944 6.51242C17.7039 6.37999 17.6579 6.24961 17.5675 6.15247C17.4771 6.05532 17.3503 6.0001 17.2175 6.0001H14.4964C14.7616 4.74785 15.8635 3.82581 17.1914 3.82581C18.7115 3.82581 19.9482 5.06248 19.9482 6.58255C19.9482 8.00085 18.8716 9.1724 17.4927 9.32295Z" fill="black"/>
</g>
<defs>
<clipPath id="clip0_867_249">
<rect width="24" height="24" fill="white"/>
</clipPath>
</defs>
</svg>

<svg xmlns="http://www.w3.org/2000/svg" width="24" height="24" fill="none">
    <g clip-path="url(#a)">
        <path fill="#F9AF49"
            d="m6.6 11.8.83 11.72H16l.85-11.72H6.59ZM17.2 3.35a3.23 3.23 0 0 0-3.24 3.13h3.26l-.24 3.33h.21a3.23 3.23 0 1 0 0-6.46Z" />
        <path fill="#D7EEFF"
            d="M13.96 6.58v-.1H6.2l.38 5.32h10.25l.14-1.99a3.23 3.23 0 0 1-3.02-3.23Z" />
        <path fill="#F9AF49" d="M13.96 6.48v.1a3.23 3.23 0 0 0 3.02 3.23l.24-3.33h-3.26Z" />
        <path fill="#000"
            d="M8.8 19.83a.48.48 0 0 0-.44.5l.06.8a.48.48 0 1 0 .95-.08l-.05-.78a.48.48 0 0 0-.51-.44Z" />
        <path fill="#000"
            d="M20.9 6.58A3.72 3.72 0 0 0 13.53 6H8.3L7.9.44A.48.48 0 0 0 7.05.2L3.18 5.63a.48.48 0 1 0 .78.55l3.1-4.34L7.34 6H6.2a.48.48 0 0 0-.48.51l.38 5.32.84 11.73c.02.25.23.44.48.44H16c.26 0 .46-.2.48-.44l.84-11.73.11-1.54a3.72 3.72 0 0 0 3.48-3.7Zm-4.36 2.68a2.77 2.77 0 0 1-2.08-2.3h2.24l-.16 2.3ZM7.4 6.96l.21 2.94a.48.48 0 0 0 .96-.06l-.2-2.88h5.12a3.72 3.72 0 0 0 2.97 3.26l-.08 1.1H7.04l-.32-4.36h.7Zm8.14 16.08H7.88L7.1 12.28h.69l.45 6.28a.48.48 0 1 0 .95-.06l-.44-6.22h7.57l-.77 10.76Zm1.94-13.72.2-2.8a.48.48 0 0 0-.47-.52H14.5a2.76 2.76 0 1 1 3 3.32Z" />
    </g>
    <defs>
        <clipPath id="a">
            <path fill="#fff" d="M0 0h24v24H0z" />
        </clipPath>
    </defs>
</svg>
